X: 8
T: The Seven Step
R: barndance
M: 4/4
L: 1/8
K: Gmaj
D2 |(3GGG G2 (3GGG G2 | G>AB>G E2 D2 | (3BBB (3BBB (3BBB (3BBB | (3Bcd d>B A4 ||
B>cd>B G2 G2 | G>AB>G E2 D2 | D>EG>A B2 d>B | B2 A2 A4 |
B2 d>B G4 | G2 B>G E2 D2 | D>EG>A (3BcB d>B | A2 G2 G2 |]


Tune 1307	Setting 1307

